;FLAVOR:Marlin
;TIME:8041
;Filament used: 8.8645m
;Layer height: 0.2
;Generated with Cura_SteamEngine 3.1.0
M190 S60
M104 S200
M109 S200
M82 ; absolute extrusion mode
G21 ;metric values
G90 ;absolute positioning
M82 ;set extruder to absolute mode
M107 ;start with the fan off
G28 X0 Y0 ;move X/Y to min endstops
G28 Z0 ;move Z to min endstops
G1 Z15.0 F9000 ;move the platform down 15mm
G92 E0 ;zero the extruded length
G1 F200 E3 ;extrude 3mm of feed stock
G92 E0 ;zero the extruded length again
G1 F9000
M117 Printing...
;LAYER_COUNT:120
;LAYER:0
M107
G0 F4800 X84.005 Y83.821 Z0.3
;TYPE:SKIRT
G1 F2400 X86.186 Y81.822 E0.1476
G1 X86.387 Y81.654 E0.16067
G1 X88.732 Y79.855 E0.30812
G1 X88.946 Y79.705 E0.32116
G1 X91.439 Y78.116 E0.46865
G1 X91.666 Y77.985 E0.48173
G1 X94.291 Y76.619 E0.62936
G1 X94.527 Y76.509 E0.64235
G1 X97.257 Y75.377 E0.7898
G1 X97.505 Y75.287 E0.80296
G1 X100.325 Y74.399 E0.95046
G1 X100.576 Y74.331 E0.96344
G1 X103.465 Y73.69 E1.11107
G1 X103.723 Y73.645 E1.12414
G1 X106.654 Y73.259 E1.27163
G1 X106.915 Y73.236 E1.2847
G1 X109.869 Y73.107 E1.43222
G1 X110.131 Y73.107 E1.44529
G1 X113.085 Y73.236 E1.59281
G1 X113.346 Y73.259 E1.60588
G1 X116.277 Y73.645 E1.75337
G1 X116.535 Y73.69 E1.76643
G1 X119.424 Y74.331 E1.91407
G1 X119.675 Y74.399 E1.92705
G1 X122.495 Y75.287 E2.07455
G1 X122.743 Y75.377 E2.08771
G1 X125.473 Y76.509 E2.23515
G1 X125.709 Y76.619 E2.24814
G1 X128.332 Y77.984 E2.39567
G1 X128.559 Y78.115 E2.40874
G1 X131.054 Y79.705 E2.55634
G1 X131.268 Y79.855 E2.56938
G1 X133.613 Y81.654 E2.71684
G1 X133.814 Y81.822 E2.72991
G1 X135.994 Y83.82 E2.87744
G1 X136.179 Y84.005 E2.89049
G1 X138.178 Y86.186 E3.03809
G1 X138.346 Y86.387 E3.05116
G1 X140.145 Y88.732 E3.19861
G1 X140.295 Y88.946 E3.21165
G1 X141.884 Y91.439 E3.35914
G1 X142.015 Y91.666 E3.37222
G1 X143.381 Y94.291 E3.51985
G1 X143.491 Y94.527 E3.53284
G1 X144.623 Y97.257 E3.68029
G1 X144.713 Y97.505 E3.69345
G1 X145.601 Y100.325 E3.84095
G1 X145.669 Y100.576 E3.85392
G1 X146.31 Y103.464 E4.00151
G1 X146.355 Y103.722 E4.01458
G1 X146.741 Y106.652 E4.16202
G1 X146.764 Y106.913 E4.17509
G1 X146.893 Y109.868 E4.32266
G1 X146.893 Y110.13 E4.33573
G1 X146.764 Y113.085 E4.4833
G1 X146.741 Y113.346 E4.49637
G1 X146.355 Y116.277 E4.64386
G1 X146.31 Y116.535 E4.65692
G1 X145.669 Y119.424 E4.80456
G1 X145.602 Y119.675 E4.81752
G1 X144.715 Y122.493 E4.96491
G1 X144.624 Y122.741 E4.97809
G1 X143.491 Y125.473 E5.12565
G1 X143.381 Y125.709 E5.13864
G1 X142.016 Y128.332 E5.28616
G1 X141.885 Y128.559 E5.29924
G1 X140.296 Y131.053 E5.44677
G1 X140.146 Y131.267 E5.45981
G1 X138.346 Y133.613 E5.60733
G1 X138.178 Y133.814 E5.6204
G1 X136.18 Y135.994 E5.76793
G1 X135.995 Y136.179 E5.78099
G1 X133.814 Y138.178 E5.92859
G1 X133.613 Y138.346 E5.94166
G1 X131.268 Y140.145 E6.08911
G1 X131.054 Y140.295 E6.10215
G1 X128.561 Y141.884 E6.24964
G1 X128.334 Y142.015 E6.26272
G1 X125.709 Y143.381 E6.41035
G1 X125.473 Y143.491 E6.42334
G1 X122.743 Y144.623 E6.57078
G1 X122.495 Y144.713 E6.58395
G1 X119.675 Y145.601 E6.73145
G1 X119.424 Y145.669 E6.74442
G1 X116.535 Y146.31 E6.89206
G1 X116.277 Y146.355 E6.90512
G1 X113.346 Y146.741 E7.05262
G1 X113.085 Y146.764 E7.06569
G1 X110.131 Y146.893 E7.2132
G1 X109.869 Y146.893 E7.22627
G1 X106.915 Y146.764 E7.37379
G1 X106.654 Y146.741 E7.38686
G1 X103.723 Y146.355 E7.53435
G1 X103.465 Y146.31 E7.54742
G1 X100.576 Y145.669 E7.69506
G1 X100.325 Y145.601 E7.70803
G1 X97.505 Y144.713 E7.85553
G1 X97.257 Y144.623 E7.86869
G1 X94.527 Y143.491 E8.01614
G1 X94.291 Y143.381 E8.02913
G1 X91.666 Y142.015 E8.17676
G1 X91.439 Y141.884 E8.18984
G1 X88.946 Y140.295 E8.33733
G1 X88.732 Y140.145 E8.35037
G1 X86.387 Y138.346 E8.49782
G1 X86.186 Y138.178 E8.51089
G1 X84.005 Y136.179 E8.65849
G1 X83.82 Y135.994 E8.67155
G1 X81.822 Y133.814 E8.81908
G1 X81.654 Y133.613 E8.83215
G1 X79.854 Y131.267 E8.97967
G1 X79.704 Y131.053 E8.99271
G1 X78.115 Y128.559 E9.14024
G1 X77.984 Y128.332 E9.15332
G1 X76.619 Y125.709 E9.30084
G1 X76.509 Y125.473 E9.31383
G1 X75.376 Y122.741 E9.46139
G1 X75.285 Y122.493 E9.47456
G1 X74.398 Y119.675 E9.62196
G1 X74.331 Y119.424 E9.63492
G1 X73.69 Y116.535 E9.78255
G1 X73.645 Y116.277 E9.79562
G1 X73.259 Y113.346 E9.94311
G1 X73.236 Y113.085 E9.95618
G1 X73.107 Y110.132 E10.10365
G1 X73.107 Y109.87 E10.11672
G1 X73.236 Y106.915 E10.26429
G1 X73.259 Y106.654 E10.27736
G1 X73.645 Y103.723 E10.42485
G1 X73.69 Y103.465 E10.43791
G1 X74.331 Y100.576 E10.58555
G1 X74.398 Y100.325 E10.59851
G1 X75.285 Y97.507 E10.7459
G1 X75.376 Y97.259 E10.75908
G1 X76.509 Y94.527 E10.90664
G1 X76.619 Y94.291 E10.91963
G1 X77.984 Y91.668 E11.06715
G1 X78.115 Y91.441 E11.08023
G1 X79.704 Y88.947 E11.22776
G1 X79.854 Y88.733 E11.2408
G1 X81.654 Y86.387 E11.38832
G1 X81.822 Y86.186 E11.40139
G1 X83.82 Y84.006 E11.54892
G1 X84.005 Y83.821 E11.56198
G0 F4800 X84.275 Y84.116
G1 F2400 X86.456 Y82.117 E11.70958
G1 X86.63 Y81.971 E11.72091
G1 X88.975 Y80.172 E11.86836
G1 X89.161 Y80.042 E11.87968
G1 X91.654 Y78.453 E12.02718
G1 X91.851 Y78.34 E12.03851
G1 X94.476 Y76.974 E12.18614
G1 X94.68 Y76.878 E12.19739
G1 X97.41 Y75.746 E12.34483
G1 X97.625 Y75.668 E12.35624
G1 X100.445 Y74.78 E12.50374
G1 X100.663 Y74.722 E12.515
G1 X103.552 Y74.081 E12.66264
G1 X103.776 Y74.041 E12.67399
G1 X106.707 Y73.655 E12.82148
G1 X106.933 Y73.635 E12.8328
G1 X109.887 Y73.506 E12.98032
G1 X110.113 Y73.506 E12.99159
G1 X113.067 Y73.635 E13.13911
G1 X113.293 Y73.655 E13.15043
G1 X116.224 Y74.041 E13.29792
G1 X116.448 Y74.081 E13.30927
G1 X119.337 Y74.722 E13.45691
G1 X119.555 Y74.78 E13.46816
G1 X122.375 Y75.668 E13.61566
G1 X122.59 Y75.746 E13.62707
G1 X125.32 Y76.878 E13.77452
G1 X125.524 Y76.974 E13.78577
G1 X128.147 Y78.339 E13.93329
G1 X128.344 Y78.452 E13.94462
G1 X130.839 Y80.042 E14.09222
G1 X131.025 Y80.172 E14.10354
G1 X133.37 Y81.971 E14.251
G1 X133.544 Y82.117 E14.26233
G1 X135.724 Y84.115 E14.40986
G1 X135.884 Y84.275 E14.42115
G1 X137.883 Y86.456 E14.56875
G1 X138.029 Y86.63 E14.58008
G1 X139.828 Y88.975 E14.72753
G1 X139.958 Y89.161 E14.73886
G1 X141.547 Y91.654 E14.88635
G1 X141.66 Y91.851 E14.89768
G1 X143.026 Y94.476 E15.04531
G1 X143.122 Y94.68 E15.05656
G1 X144.254 Y97.41 E15.204
G1 X144.332 Y97.625 E15.21541
G1 X145.22 Y100.445 E15.36292
G1 X145.278 Y100.663 E15.37417
G1 X145.919 Y103.551 E15.52176
G1 X145.959 Y103.774 E15.53306
G1 X146.345 Y106.704 E15.6805
G1 X146.365 Y106.931 E15.69187
G1 X146.494 Y109.886 E15.83944
G1 X146.494 Y110.112 E15.85071
G1 X146.365 Y113.067 E15.99828
G1 X146.345 Y113.293 E16.0096
G1 X145.959 Y116.224 E16.15709
G1 X145.919 Y116.448 E16.16844
G1 X145.278 Y119.337 E16.31608
G1 X145.22 Y119.555 E16.32733
G1 X144.333 Y122.373 E16.47473
G1 X144.255 Y122.588 E16.48614
G1 X143.122 Y125.32 E16.63369
G1 X143.026 Y125.524 E16.64494
G1 X141.661 Y128.147 E16.79246
G1 X141.548 Y128.344 E16.80379
G1 X139.959 Y130.838 E16.95133
G1 X139.829 Y131.024 E16.96265
G1 X138.029 Y133.37 E17.11017
G1 X137.883 Y133.544 E17.1215
G1 X135.885 Y135.724 E17.26903
G1 X135.725 Y135.884 E17.28032
G1 X133.544 Y137.883 E17.42792
G1 X133.37 Y138.029 E17.43926
G1 X131.025 Y139.828 E17.58671
G1 X130.839 Y139.958 E17.59803
G1 X128.346 Y141.547 E17.74552
G1 X128.149 Y141.66 E17.75685
G1 X125.524 Y143.026 E17.90449
G1 X125.32 Y143.122 E17.91574
G1 X122.59 Y144.254 E18.06318
G1 X122.375 Y144.332 E18.07459
G1 X119.555 Y145.22 E18.22209
G1 X119.337 Y145.278 E18.23335
G1 X116.448 Y145.919 E18.38098
G1 X116.224 Y145.959 E18.39234
G1 X113.293 Y146.345 E18.53983
G1 X113.067 Y146.365 E18.55115
G1 X110.113 Y146.494 E18.69866
G1 X109.887 Y146.494 E18.70994
G1 X106.933 Y146.365 E18.85745
G1 X106.707 Y146.345 E18.86877
G1 X103.776 Y145.959 E19.01626
G1 X103.552 Y145.919 E19.02762
G1 X100.663 Y145.278 E19.17525
G1 X100.445 Y145.22 E19.18651
G1 X97.625 Y144.332 E19.33401
G1 X97.41 Y144.254 E19.34542
G1 X94.68 Y143.122 E19.49286
G1 X94.476 Y143.026 E19.50411
G1 X91.851 Y141.66 E19.65175
G1 X91.654 Y141.547 E19.66308
G1 X89.161 Y139.958 E19.81057
G1 X88.975 Y139.828 E19.82189
G1 X86.63 Y138.029 E19.96934
G1 X86.456 Y137.883 E19.98068
G1 X84.275 Y135.884 E20.12828
G1 X84.115 Y135.724 E20.13957
G1 X82.117 Y133.544 E20.2871
G1 X81.971 Y133.37 E20.29843
G1 X80.171 Y131.024 E20.44595
G1 X80.041 Y130.838 E20.45727
G1 X78.452 Y128.344 E20.60481
G1 X78.339 Y128.147 E20.61614
G1 X76.974 Y125.524 E20.76366
G1 X76.878 Y125.32 E20.77491
G1 X75.745 Y122.588 E20.92246
G1 X75.667 Y122.373 E20.93387
G1 X74.78 Y119.555 E21.08126
G1 X74.722 Y119.337 E21.09252
G1 X74.081 Y116.448 E21.24016
G1 X74.041 Y116.224 E21.25151
G1 X73.655 Y113.293 E21.399
G1 X73.635 Y113.067 E21.41032
G1 X73.506 Y110.114 E21.55779
G1 X73.506 Y109.888 E21.56906
G1 X73.635 Y106.933 E21.71663
G1 X73.655 Y106.707 E21.72795
G1 X74.041 Y103.776 E21.87544
G1 X74.081 Y103.552 E21.88679
G1 X74.722 Y100.663 E22.03443
G1 X74.78 Y100.445 E22.04568
G1 X75.667 Y97.627 E22.19307
G1 X75.745 Y97.412 E22.20448
G1 X76.878 Y94.68 E22.35204
G1 X76.974 Y94.476 E22.36329
G1 X78.339 Y91.853 E22.51081
G1 X78.452 Y91.656 E22.52214
G1 X80.041 Y89.162 E22.66967
G1 X80.171 Y88.976 E22.68099
G1 X81.971 Y86.63 E22.82852
G1 X82.117 Y86.456 E22.83985
G1 X84.115 Y84.276 E22.98738
G1 X84.275 Y84.116 E22.99867
G0 F4800 X84.546 Y84.411
G1 F2400 X86.727 Y82.412 E23.14627
G1 X86.874 Y82.288 E23.15586
G1 X89.219 Y80.489 E23.30332
G1 X89.376 Y80.38 E23.31285
G1 X91.869 Y78.791 E23.46035
G1 X92.035 Y78.694 E23.46994
G1 X94.66 Y77.328 E23.61757
G1 X94.833 Y77.248 E23.62708
G1 X97.563 Y76.116 E23.77453
G1 X97.745 Y76.05 E23.78418
G1 X100.565 Y75.162 E23.93169
G1 X100.749 Y75.112 E23.9412
G1 X103.638 Y74.471 E24.08884
G1 X103.828 Y74.438 E24.09846
G1 X106.759 Y74.052 E24.24595
G1 X106.95 Y74.035 E24.25551
G1 X109.904 Y73.906 E24.40303
G1 X110.096 Y73.906 E24.41261
G1 X113.05 Y74.035 E24.56013
G1 X113.241 Y74.052 E24.56969
G1 X116.172 Y74.438 E24.71718
G1 X116.362 Y74.471 E24.7268
G1 X119.251 Y75.112 E24.87444
G1 X119.435 Y75.162 E24.88395
G1 X122.255 Y76.05 E25.03146
G1 X122.437 Y76.116 E25.04111
G1 X125.167 Y77.248 E25.18856
G1 X125.34 Y77.328 E25.19807
G1 X127.963 Y78.693 E25.34559
G1 X128.129 Y78.79 E25.35518
G1 X130.624 Y80.38 E25.50279
G1 X130.781 Y80.489 E25.51232
G1 X133.126 Y82.288 E25.65977
G1 X133.273 Y82.412 E25.66937
G1 X135.453 Y84.41 E25.8169
G1 X135.589 Y84.546 E25.8265
G1 X137.588 Y86.727 E25.9741
G1 X137.712 Y86.874 E25.98369
G1 X139.511 Y89.219 E26.13114
G1 X139.62 Y89.376 E26.14068
G1 X141.209 Y91.869 E26.28817
G1 X141.306 Y92.035 E26.29776
G1 X142.672 Y94.66 E26.4454
G1 X142.752 Y94.833 E26.45491
G1 X143.884 Y97.563 E26.60235
G1 X143.95 Y97.745 E26.61201
G1 X144.838 Y100.565 E26.75951
G1 X144.888 Y100.749 E26.76902
G1 X145.529 Y103.637 E26.91661
G1 X145.562 Y103.827 E26.92623
G1 X145.948 Y106.757 E27.07368
G1 X145.965 Y106.948 E27.08324
G1 X146.094 Y109.903 E27.23081
G1 X146.094 Y110.095 E27.24039
G1 X145.965 Y113.05 E27.38795
G1 X145.948 Y113.241 E27.39752
G1 X145.562 Y116.172 E27.54501
G1 X145.529 Y116.362 E27.55463
G1 X144.888 Y119.251 E27.70227
G1 X144.838 Y119.435 E27.71178
G1 X143.951 Y122.253 E27.85917
G1 X143.885 Y122.435 E27.86883
G1 X142.752 Y125.167 E28.01639
G1 X142.672 Y125.34 E28.0259
G1 X141.307 Y127.963 E28.17342
G1 X141.21 Y128.129 E28.18301
G1 X139.621 Y130.623 E28.33054
G1 X139.511 Y130.78 E28.34011
G1 X137.711 Y133.126 E28.48763
G1 X137.588 Y133.273 E28.49719
G1 X135.59 Y135.453 E28.64472
G1 X135.454 Y135.589 E28.65432
G1 X133.273 Y137.588 E28.80192
G1 X133.126 Y137.712 E28.81152
G1 X130.781 Y139.511 E28.95897
G1 X130.624 Y139.62 E28.96851
G1 X128.131 Y141.209 E29.116
G1 X127.965 Y141.306 E29.12559
G1 X125.34 Y142.672 E29.27322
G1 X125.167 Y142.752 E29.28273
G1 X122.437 Y143.884 E29.43018
G1 X122.255 Y143.95 E29.43984
G1 X119.435 Y144.838 E29.58734
G1 X119.251 Y144.888 E29.59685
G1 X116.362 Y145.529 E29.74449
G1 X116.172 Y145.562 E29.75411
G1 X113.241 Y145.948 E29.9016
G1 X113.05 Y145.965 E29.91117
G1 X110.096 Y146.094 E30.05868
G1 X109.904 Y146.094 E30.06826
G1 X106.95 Y145.965 E30.21578
G1 X106.759 Y145.948 E30.22534
G1 X103.828 Y145.562 E30.37283
G1 X103.638 Y145.529 E30.38246
G1 X100.749 Y144.888 E30.53009
G1 X100.565 Y144.838 E30.53961
G1 X97.745 Y143.95 E30.68711
G1 X97.563 Y143.884 E30.69677
G1 X94.833 Y142.752 E30.84421
G1 X94.66 Y142.672 E30.85372
G1 X92.035 Y141.306 E31.00135
G1 X91.869 Y141.209 E31.01094
G1 X89.376 Y139.62 E31.15844
G1 X89.219 Y139.511 E31.16797
G1 X86.874 Y137.712 E31.31543
G1 X86.727 Y137.588 E31.32502
G1 X84.546 Y135.589 E31.47262
G1 X84.41 Y135.453 E31.48222
G1 X82.412 Y133.273 E31.62975
G1 X82.289 Y133.126 E31.63931
G1 X80.489 Y130.78 E31.78683
G1 X80.379 Y130.623 E31.7964
G1 X78.79 Y128.129 E31.94393
G1 X78.693 Y127.963 E31.95352
G1 X77.328 Y125.34 E32.10105
G1 X77.248 Y125.167 E32.11055
G1 X76.115 Y122.435 E32.25811
G1 X76.049 Y122.253 E32.26777
G1 X75.162 Y119.435 E32.41516
G1 X75.112 Y119.251 E32.42467
G1 X74.471 Y116.362 E32.57231
G1 X74.438 Y116.172 E32.58193
G1 X74.052 Y113.241 E32.72942
G1 X74.035 Y113.05 E32.73899
G1 X73.906 Y110.097 E32.88646
G1 X73.906 Y109.905 E32.89603
G1 X74.035 Y106.95 E33.0436
G1 X74.052 Y106.759 E33.05317
G1 X74.438 Y103.828 E33.20066
G1 X74.471 Y103.638 E33.21028
G1 X75.112 Y100.749 E33.35792
G1 X75.162 Y100.565 E33.36743
G1 X76.049 Y97.747 E33.51482
G1 X76.115 Y97.565 E33.52448
G1 X77.248 Y94.833 E33.67204
G1 X77.328 Y94.66 E33.68154
G1 X78.693 Y92.037 E33.82907
G1 X78.79 Y91.871 E33.83866
G1 X80.379 Y89.377 E33.98619
G1 X80.489 Y89.22 E33.99576
G1 X82.289 Y86.874 E34.14328
G1 X82.412 Y86.727 E34.15284
G1 X84.41 Y84.547 E34.30037
G1 X84.546 Y84.411 E34.30997
G0 F4800 X84.816 Y84.706
G1 F2400 X86.997 Y82.707 E34.45757
G1 X87.117 Y82.606 E34.46539
G1 X89.462 Y80.807 E34.61285
G1 X89.591 Y80.717 E34.6207
G1 X92.084 Y79.128 E34.76819
G1 X92.22 Y79.049 E34.77604
G1 X94.845 Y77.683 E34.92367
G1 X94.987 Y77.617 E34.93148
G1 X97.717 Y76.485 E35.07892
G1 X97.865 Y76.431 E35.08678
G1 X100.685 Y75.543 E35.23429
G1 X100.836 Y75.503 E35.24208
G1 X103.725 Y74.862 E35.38972
G1 X103.88 Y74.834 E35.39758
G1 X106.811 Y74.448 E35.54507
G1 X106.967 Y74.435 E35.55288
G1 X109.921 Y74.306 E35.70039
G1 X110.079 Y74.306 E35.70827
G1 X113.033 Y74.435 E35.85579
G1 X113.189 Y74.448 E35.8636
G1 X116.12 Y74.834 E36.01109
G1 X116.275 Y74.862 E36.01895
G1 X119.164 Y75.503 E36.16659
G1 X119.315 Y75.543 E36.17438
G1 X122.135 Y76.431 E36.32188
G1 X122.283 Y76.485 E36.32974
G1 X125.013 Y77.617 E36.47719
G1 X125.155 Y77.683 E36.485
G1 X127.778 Y79.048 E36.63252
G1 X127.914 Y79.127 E36.64037
G1 X130.409 Y80.717 E36.78797
G1 X130.538 Y80.807 E36.79582
G1 X132.883 Y82.606 E36.94327
G1 X133.003 Y82.707 E36.9511
G1 X135.183 Y84.705 E37.09863
G1 X135.294 Y84.816 E37.10646
G1 X137.293 Y86.997 E37.25406
G1 X137.394 Y87.117 E37.26188
G1 X139.193 Y89.462 E37.40934
G1 X139.283 Y89.591 E37.41719
G1 X140.872 Y92.084 E37.56468
G1 X140.951 Y92.22 E37.57252
G1 X142.317 Y94.845 E37.72016
G1 X142.383 Y94.987 E37.72797
G1 X143.515 Y97.717 E37.87541
G1 X143.569 Y97.865 E37.88327
G1 X144.457 Y100.685 E38.03078
G1 X144.497 Y100.836 E38.03857
G1 X145.138 Y103.724 E38.18616
G1 X145.166 Y103.879 E38.19402
G1 X145.552 Y106.809 E38.34146
G1 X145.565 Y106.965 E38.34927
G1 X145.694 Y109.92 E38.49683
G1 X145.694 Y110.078 E38.50472
G1 X145.565 Y113.033 E38.65228
G1 X145.552 Y113.189 E38.66009
G1 X145.166 Y116.12 E38.80758
G1 X145.138 Y116.275 E38.81544
G1 X144.497 Y119.164 E38.96308
G1 X144.457 Y119.314 E38.97082
G1 X143.57 Y122.132 E39.11821
G1 X143.516 Y122.282 E39.12617
G1 X142.383 Y125.014 E39.27372
G1 X142.317 Y125.155 E39.28149
G1 X140.952 Y127.778 E39.42901
G1 X140.873 Y127.914 E39.43686
G1 X139.284 Y130.408 E39.58439
G1 X139.194 Y130.537 E39.59224
G1 X137.394 Y132.883 E39.73977
G1 X137.293 Y133.003 E39.74759
G1 X135.295 Y135.183 E39.89512
G1 X135.184 Y135.294 E39.90295
G1 X133.003 Y137.293 E40.05055
G1 X132.883 Y137.394 E40.05838
G1 X130.538 Y139.193 E40.20583
G1 X130.409 Y139.283 E40.21368
G1 X127.916 Y140.872 E40.36117
G1 X127.78 Y140.951 E40.36902
G1 X125.155 Y142.317 E40.51665
G1 X125.013 Y142.383 E40.52446
G1 X122.283 Y143.515 E40.67191
G1 X122.135 Y143.569 E40.67977
