;FLAVOR:Marlin
;TIME:7886
;Filament used: 8.50617m
;Layer height: 0.2
;Generated with Cura_SteamEngine 3.1.0
M190 S60
M104 S200
M109 S200
M82 ; absolute extrusion mode
G21 ;metric values
G90 ;absolute positioning
M82 ;set extruder to absolute mode
M107 ;start with the fan off
G28 X0 Y0 ;move X/Y to min endstops
G28 Z0 ;move Z to min endstops
G1 Z15.0 F9000 ;move the platform down 15mm
G92 E0 ;zero the extruded length
G1 F200 E3 ;extrude 3mm of feed stock
G92 E0 ;zero the extruded length again
G1 F9000
M117 Printing...
;LAYER_COUNT:129
;LAYER:0
M107
G0 F4800 X98.343 Y66.038 Z0.3
;TYPE:SKIRT
G1 F2400 X98.639 Y65.648 E0.02443
G1 X98.995 Y65.312 E0.04885
G1 X99.4 Y65.038 E0.07324
G1 X99.845 Y64.834 E0.09767
G1 X100.44 Y64.684 E0.12828
G1 X105.053 Y64.015 E0.36083
G1 X105.272 Y63.991 E0.37182
G1 X108.252 Y63.78 E0.52087
G1 X108.464 Y63.773 E0.53145
G1 X111.51 Y63.773 E0.68342
G1 X111.722 Y63.781 E0.694
G1 X114.697 Y63.992 E0.8428
G1 X114.899 Y64.013 E0.85293
G1 X119.519 Y64.657 E1.08565
G1 X119.997 Y64.764 E1.11009
G1 X120.451 Y64.947 E1.13451
G1 X120.869 Y65.201 E1.15891
G1 X121.24 Y65.52 E1.18332
G1 X121.554 Y65.896 E1.20776
G1 X121.803 Y66.317 E1.23216
G1 X121.981 Y66.773 E1.25659
G1 X122.081 Y67.252 E1.281
G1 X122.105 Y67.64 E1.30039
G1 X122.075 Y75.275 E1.68131
G1 X122.033 Y75.762 E1.70569
G1 X121.913 Y76.237 E1.73014
G1 X121.87 Y76.334 E1.73543
G1 X122.081 Y76.4 E1.74646
G1 X122.327 Y76.489 E1.75951
G1 X124.973 Y77.584 E1.90238
G1 X125.211 Y77.695 E1.91548
G1 X127.729 Y79.005 E2.05709
G1 X127.956 Y79.136 E2.07016
G1 X130.366 Y80.672 E2.21274
G1 X130.579 Y80.821 E2.22571
G1 X132.853 Y82.564 E2.36865
G1 X133.054 Y82.732 E2.38172
G1 X135.151 Y84.652 E2.52357
G1 X135.337 Y84.838 E2.53669
G1 X137.26 Y86.936 E2.67868
G1 X137.429 Y87.137 E2.69178
G1 X139.176 Y89.415 E2.83501
G1 X139.325 Y89.628 E2.84797
G1 X140.86 Y92.036 E2.99044
G1 X140.991 Y92.264 E3.00356
G1 X142.3 Y94.78 E3.14506
G1 X142.41 Y95.016 E3.15805
G1 X143.507 Y97.661 E3.30091
G1 X143.597 Y97.908 E3.31402
G1 X144.456 Y100.634 E3.45662
G1 X144.524 Y100.886 E3.46964
G1 X145.141 Y103.666 E3.61171
G1 X145.186 Y103.923 E3.62472
G1 X145.559 Y106.743 E3.76664
G1 X145.582 Y107.005 E3.77976
G1 X145.707 Y109.865 E3.92258
G1 X145.707 Y110.126 E3.9356
G1 X145.583 Y112.982 E4.07822
G1 X145.56 Y113.244 E4.09135
G1 X145.188 Y116.066 E4.23335
G1 X145.143 Y116.323 E4.24637
G1 X144.527 Y119.103 E4.38843
G1 X144.459 Y119.356 E4.4015
G1 X143.6 Y122.082 E4.54409
G1 X143.511 Y122.327 E4.5571
G1 X142.416 Y124.973 E4.69996
G1 X142.305 Y125.211 E4.71307
G1 X140.994 Y127.73 E4.85474
G1 X140.864 Y127.956 E4.86775
G1 X139.333 Y130.361 E5.00998
G1 X139.183 Y130.576 E5.02306
G1 X137.436 Y132.854 E5.16629
G1 X137.268 Y133.054 E5.17932
G1 X135.348 Y135.151 E5.32117
G1 X135.162 Y135.337 E5.33429
G1 X133.064 Y137.26 E5.47627
G1 X132.862 Y137.429 E5.48941
G1 X130.587 Y139.173 E5.63243
G1 X130.376 Y139.321 E5.64529
G1 X127.967 Y140.858 E5.78785
G1 X127.738 Y140.99 E5.80104
G1 X125.219 Y142.301 E5.94271
G1 X124.983 Y142.411 E5.9557
G1 X122.339 Y143.507 E6.0985
G1 X122.091 Y143.597 E6.11166
G1 X119.367 Y144.455 E6.25414
G1 X119.117 Y144.523 E6.26707
G1 X116.335 Y145.141 E6.40924
G1 X116.076 Y145.186 E6.42236
G1 X113.253 Y145.558 E6.56442
G1 X112.993 Y145.581 E6.57744
G1 X110.136 Y145.707 E6.72011
G1 X109.873 Y145.707 E6.73324
G1 X107.017 Y145.582 E6.87586
G1 X106.757 Y145.559 E6.88888
G1 X103.935 Y145.188 E7.03088
G1 X103.676 Y145.143 E7.044
G1 X100.894 Y144.526 E7.18616
G1 X100.643 Y144.458 E7.19914
G1 X97.919 Y143.6 E7.34162
G1 X97.673 Y143.511 E7.35467
G1 X95.027 Y142.416 E7.49754
G1 X94.789 Y142.305 E7.51064
G1 X92.269 Y140.994 E7.65236
G1 X92.041 Y140.863 E7.66548
G1 X89.633 Y139.328 E7.80795
G1 X89.421 Y139.179 E7.82088
G1 X87.146 Y137.435 E7.96389
G1 X86.945 Y137.267 E7.97696
G1 X84.847 Y135.346 E8.11888
G1 X84.661 Y135.16 E8.132
G1 X82.74 Y133.064 E8.27384
G1 X82.572 Y132.863 E8.28691
G1 X80.824 Y130.584 E8.43021
G1 X80.674 Y130.37 E8.44325
G1 X79.14 Y127.963 E8.58564
G1 X79.009 Y127.736 E8.59872
G1 X77.699 Y125.219 E8.74028
G1 X77.589 Y124.983 E8.75327
G1 X76.492 Y122.337 E8.89618
G1 X76.402 Y122.089 E8.90934
G1 X75.544 Y119.365 E9.05182
G1 X75.476 Y119.114 E9.0648
G1 X74.859 Y116.334 E9.20687
G1 X74.814 Y116.077 E9.21988
G1 X74.441 Y113.254 E9.36195
G1 X74.418 Y112.992 E9.37507
G1 X74.293 Y110.135 E9.51774
G1 X74.293 Y109.874 E9.53076
G1 X74.417 Y107.015 E9.67353
G1 X74.44 Y106.753 E9.68666
G1 X74.812 Y103.934 E9.82852
G1 X74.857 Y103.677 E9.84153
G1 X75.473 Y100.897 E9.98359
G1 X75.541 Y100.644 E9.99666
G1 X76.4 Y97.918 E10.13925
G1 X76.489 Y97.673 E10.15226
G1 X77.584 Y95.027 E10.29513
G1 X77.695 Y94.789 E10.30823
G1 X79.006 Y92.27 E10.4499
G1 X79.136 Y92.044 E10.46291
G1 X80.667 Y89.639 E10.60515
G1 X80.817 Y89.424 E10.61822
G1 X82.564 Y87.146 E10.76145
G1 X82.732 Y86.946 E10.77448
G1 X84.652 Y84.849 E10.91633
G1 X84.838 Y84.663 E10.92945
G1 X86.936 Y82.74 E11.07144
G1 X87.138 Y82.571 E11.08458
G1 X89.413 Y80.827 E11.22759
G1 X89.625 Y80.679 E11.24049
G1 X92.036 Y79.141 E11.38316
G1 X92.264 Y79.009 E11.39631
G1 X94.781 Y77.699 E11.53787
G1 X95.017 Y77.589 E11.55086
G1 X97.661 Y76.493 E11.69365
G1 X97.909 Y76.403 E11.70682
G1 X98.131 Y76.333 E11.71843
G1 X98.076 Y76.203 E11.72547
G1 X97.961 Y75.727 E11.7499
G1 X97.925 Y75.262 E11.77317
G1 X97.925 Y68.164 E12.12729
G1 X97.882 Y67.908 E12.14024
G1 X97.88 Y67.418 E12.16469
G1 X97.958 Y66.935 E12.1891
G1 X98.114 Y66.471 E12.21352
G1 X98.343 Y66.038 E12.23796
G0 F4800 X98.769 Y66.123
G1 F2400 X99.068 Y65.78 E12.26066
G1 X99.423 Y65.494 E12.2834
G1 X99.822 Y65.274 E12.30613
G1 X100.253 Y65.127 E12.32885
G1 X100.498 Y65.08 E12.3413
G1 X105.111 Y64.411 E12.57385
G1 X105.3 Y64.39 E12.58334
G1 X108.28 Y64.179 E12.73238
G1 X108.464 Y64.173 E12.74157
G1 X111.51 Y64.173 E12.89353
G1 X111.694 Y64.18 E12.90272
G1 X114.669 Y64.391 E13.05152
G1 X114.844 Y64.409 E13.06029
G1 X119.464 Y65.053 E13.29301
G1 X119.908 Y65.155 E13.31574
G1 X120.327 Y65.333 E13.33845
G1 X120.709 Y65.582 E13.3612
G1 X121.042 Y65.893 E13.38394
G1 X121.315 Y66.258 E13.40668
G1 X121.52 Y66.665 E13.42941
G1 X121.651 Y67.101 E13.45212
G1 X121.705 Y67.638 E13.47905
G1 X121.675 Y75.273 E13.85996
G1 X121.633 Y75.727 E13.88271
G1 X121.513 Y76.166 E13.90542
G1 X121.318 Y76.578 E13.92816
G1 X121.961 Y76.781 E13.9618
G1 X122.174 Y76.859 E13.97311
G1 X124.82 Y77.954 E14.11598
G1 X125.026 Y78.049 E14.1273
G1 X127.544 Y79.359 E14.26891
G1 X127.741 Y79.473 E14.28026
G1 X130.151 Y81.009 E14.42284
G1 X130.336 Y81.138 E14.43409
G1 X132.61 Y82.881 E14.57704
G1 X132.784 Y83.027 E14.58837
G1 X134.881 Y84.947 E14.73022
G1 X135.042 Y85.108 E14.74158
G1 X136.965 Y87.206 E14.88356
G1 X137.111 Y87.381 E14.89493
G1 X138.858 Y89.659 E15.03816
G1 X138.987 Y89.843 E15.04937
G1 X140.522 Y92.251 E15.19183
G1 X140.637 Y92.449 E15.20326
G1 X141.946 Y94.965 E15.34475
G1 X142.041 Y95.169 E15.35598
G1 X143.138 Y97.814 E15.49884
G1 X143.216 Y98.029 E15.51025
G1 X144.075 Y100.755 E15.65284
G1 X144.133 Y100.973 E15.6641
G1 X144.75 Y103.753 E15.80617
G1 X144.79 Y103.975 E15.81742
G1 X145.163 Y106.795 E15.95934
G1 X145.183 Y107.022 E15.97071
G1 X145.308 Y109.882 E16.11353
G1 X145.308 Y110.109 E16.12485
G1 X145.184 Y112.965 E16.26747
G1 X145.164 Y113.192 E16.27884
G1 X144.792 Y116.014 E16.42085
G1 X144.752 Y116.236 E16.43211
G1 X144.136 Y119.016 E16.57416
G1 X144.078 Y119.235 E16.58547
G1 X143.219 Y121.961 E16.72806
G1 X143.141 Y122.174 E16.73938
G1 X142.046 Y124.82 E16.88224
G1 X141.95 Y125.026 E16.89358
G1 X140.639 Y127.545 E17.03526
G1 X140.526 Y127.741 E17.04654
G1 X138.995 Y130.146 E17.18878
G1 X138.865 Y130.332 E17.2001
G1 X137.118 Y132.61 E17.34332
G1 X136.973 Y132.784 E17.35462
G1 X135.053 Y134.881 E17.49647
G1 X134.892 Y135.042 E17.50783
G1 X132.794 Y136.965 E17.64982
G1 X132.619 Y137.111 E17.66119
G1 X130.344 Y138.855 E17.8042
G1 X130.16 Y138.984 E17.81541
G1 X127.751 Y140.521 E17.95798
G1 X127.553 Y140.635 E17.96937
G1 X125.034 Y141.946 E18.11105
G1 X124.83 Y142.042 E18.1223
G1 X122.186 Y143.138 E18.26509
G1 X121.971 Y143.216 E18.2765
G1 X119.247 Y144.074 E18.41898
G1 X119.03 Y144.132 E18.43019
G1 X116.248 Y144.75 E18.57237
G1 X116.024 Y144.79 E18.58372
G1 X113.201 Y145.162 E18.72578
G1 X112.976 Y145.181 E18.73704
G1 X110.119 Y145.307 E18.87972
G1 X109.89 Y145.308 E18.89114
G1 X107.034 Y145.183 E19.03377
G1 X106.809 Y145.163 E19.04504
G1 X103.987 Y144.792 E19.18704
G1 X103.763 Y144.752 E19.19839
G1 X100.981 Y144.135 E19.34056
G1 X100.763 Y144.077 E19.35181
G1 X98.039 Y143.219 E19.49429
G1 X97.826 Y143.141 E19.50561
G1 X95.18 Y142.046 E19.64848
G1 X94.974 Y141.951 E19.6598
G1 X92.454 Y140.64 E19.80151
G1 X92.256 Y140.525 E19.81294
G1 X89.848 Y138.99 E19.95541
G1 X89.664 Y138.861 E19.96662
G1 X87.389 Y137.117 E20.10963
G1 X87.215 Y136.972 E20.12093
G1 X85.117 Y135.051 E20.26285
G1 X84.956 Y134.89 E20.27421
G1 X83.035 Y132.794 E20.41605
G1 X82.889 Y132.619 E20.42742
G1 X81.141 Y130.34 E20.57072
G1 X81.011 Y130.155 E20.582
G1 X79.477 Y127.748 E20.7244
G1 X79.364 Y127.551 E20.73573
G1 X78.054 Y125.034 E20.87729
G1 X77.958 Y124.83 E20.88854
G1 X76.861 Y122.184 E21.03144
G1 X76.783 Y121.969 E21.04285
G1 X75.925 Y119.245 E21.18534
G1 X75.867 Y119.027 E21.19659
G1 X75.25 Y116.247 E21.33866
G1 X75.21 Y116.025 E21.34992
G1 X74.837 Y113.202 E21.49198
G1 X74.817 Y112.975 E21.50335
G1 X74.692 Y110.118 E21.64602
G1 X74.692 Y109.891 E21.65735
G1 X74.816 Y107.032 E21.80012
G1 X74.836 Y106.805 E21.81149
G1 X75.208 Y103.986 E21.95335
G1 X75.248 Y103.764 E21.9646
G1 X75.864 Y100.984 E22.10666
G1 X75.922 Y100.765 E22.11796
G1 X76.781 Y98.039 E22.26055
G1 X76.859 Y97.826 E22.27187
G1 X77.954 Y95.18 E22.41474
G1 X78.05 Y94.974 E22.42608
G1 X79.361 Y92.455 E22.56775
G1 X79.474 Y92.259 E22.57904
G1 X81.005 Y89.854 E22.72127
G1 X81.135 Y89.668 E22.73259
G1 X82.882 Y87.39 E22.87582
G1 X83.027 Y87.216 E22.88712
G1 X84.947 Y85.119 E23.02897
G1 X85.108 Y84.958 E23.04033
G1 X87.206 Y83.035 E23.18231
G1 X87.381 Y82.889 E23.19368
G1 X89.656 Y81.145 E23.33669
G1 X89.84 Y81.016 E23.34791
G1 X92.251 Y79.478 E23.49058
G1 X92.449 Y79.364 E23.50198
G1 X94.966 Y78.054 E23.64354
G1 X95.17 Y77.958 E23.65479
G1 X97.814 Y76.862 E23.79758
G1 X98.029 Y76.784 E23.809
G1 X98.688 Y76.576 E23.84347
G1 X98.516 Y76.239 E23.86235
G1 X98.382 Y75.803 E23.8851
G1 X98.325 Y75.262 E23.91224
G1 X98.325 Y68.132 E24.26796
G1 X98.278 Y67.842 E24.28262
G1 X98.285 Y67.387 E24.30532
G1 X98.371 Y66.939 E24.32808
G1 X98.534 Y66.514 E24.35079
G1 X98.769 Y66.123 E24.37355
G0 F4800 X98.956 Y66.57
G1 F2400 X99.196 Y66.226 E24.39447
G1 X99.497 Y65.935 E24.41536
G1 X99.848 Y65.705 E24.4363
G1 X100.236 Y65.547 E24.4572
G1 X100.555 Y65.476 E24.4735
G1 X105.168 Y64.807 E24.70605
G1 X105.329 Y64.789 E24.71414
G1 X108.309 Y64.578 E24.86318
G1 X108.464 Y64.573 E24.87092
G1 X111.51 Y64.573 E25.02288
G1 X111.666 Y64.579 E25.03067
G1 X114.641 Y64.79 E25.17947
G1 X114.789 Y64.805 E25.18689
G1 X119.409 Y65.449 E25.41961
G1 X119.816 Y65.546 E25.44049
G1 X120.198 Y65.719 E25.46141
G1 X120.54 Y65.961 E25.48231
G1 X120.83 Y66.263 E25.5032
G1 X121.058 Y66.615 E25.52412
G1 X121.215 Y67.004 E25.54505
G1 X121.295 Y67.415 E25.56594
G1 X121.305 Y67.637 E25.57703
G1 X121.275 Y75.272 E25.95794
G1 X121.233 Y75.689 E25.97885
G1 X121.114 Y76.09 E25.99972
G1 X120.92 Y76.462 E26.02065
G1 X120.659 Y76.79 E26.04156
G1 X120.658 Y76.791 E26.04163
G1 X121.841 Y77.163 E26.1035
G1 X122.021 Y77.228 E26.11305
G1 X124.667 Y78.323 E26.25592
G1 X124.841 Y78.404 E26.26549
G1 X127.359 Y79.714 E26.4071
G1 X127.526 Y79.811 E26.41674
G1 X129.936 Y81.347 E26.55931
G1 X130.092 Y81.456 E26.56881
G1 X132.366 Y83.199 E26.71175
G1 X132.514 Y83.322 E26.72135
G1 X134.611 Y85.242 E26.8632
G1 X134.747 Y85.378 E26.8728
G1 X136.67 Y87.476 E27.01478
G1 X136.794 Y87.624 E27.02442
G1 X138.541 Y89.902 E27.16764
G1 X138.65 Y90.058 E27.17713
G1 X140.185 Y92.466 E27.3196
G1 X140.282 Y92.634 E27.32928
G1 X141.591 Y95.15 E27.47078
G1 X141.671 Y95.322 E27.48024
G1 X142.768 Y97.967 E27.6231
G1 X142.834 Y98.149 E27.63276
G1 X143.693 Y100.875 E27.77535
G1 X143.743 Y101.059 E27.78486
G1 X144.36 Y103.839 E27.92693
G1 X144.393 Y104.028 E27.9365
G1 X144.766 Y106.848 E28.07842
G1 X144.783 Y107.04 E28.08804
G1 X144.908 Y109.9 E28.23086
G1 X144.908 Y110.091 E28.24039
G1 X144.784 Y112.947 E28.38301
G1 X144.767 Y113.14 E28.39268
G1 X144.395 Y115.962 E28.53468
G1 X144.362 Y116.15 E28.54421
G1 X143.746 Y118.93 E28.68626
G1 X143.696 Y119.115 E28.69583
G1 X142.837 Y121.841 E28.83842
G1 X142.772 Y122.021 E28.84797
G1 X141.677 Y124.667 E28.99083
G1 X141.596 Y124.842 E29.00045
G1 X140.285 Y127.361 E29.14213
G1 X140.189 Y127.526 E29.15165
G1 X138.658 Y129.931 E29.29389
G1 X138.548 Y130.089 E29.30349
G1 X136.801 Y132.367 E29.44672
G1 X136.678 Y132.514 E29.45628
G1 X134.758 Y134.611 E29.59813
G1 X134.622 Y134.747 E29.60772
G1 X132.524 Y136.67 E29.74971
G1 X132.375 Y136.794 E29.75938
G1 X130.1 Y138.538 E29.90239
G1 X129.945 Y138.647 E29.91185
G1 X127.536 Y140.184 E30.05441
G1 X127.369 Y140.281 E30.06405
G1 X124.85 Y141.592 E30.20572
G1 X124.676 Y141.672 E30.21527
G1 X122.032 Y142.768 E30.35807
G1 X121.851 Y142.834 E30.36768
G1 X119.127 Y143.692 E30.51016
G1 X118.943 Y143.742 E30.51968
G1 X116.161 Y144.36 E30.66185
G1 X115.971 Y144.393 E30.67147
G1 X113.148 Y144.765 E30.81353
G1 X112.958 Y144.782 E30.82305
G1 X110.101 Y144.908 E30.96572
G1 X109.908 Y144.908 E30.97535
G1 X107.052 Y144.783 E31.11798
G1 X106.861 Y144.766 E31.12754
G1 X104.039 Y144.395 E31.26954
G1 X103.85 Y144.362 E31.27912
G1 X101.068 Y143.745 E31.42128
G1 X100.883 Y143.695 E31.43084
G1 X98.159 Y142.837 E31.57333
G1 X97.979 Y142.772 E31.58287
G1 X95.333 Y141.677 E31.72574
G1 X95.159 Y141.596 E31.73532
G1 X92.639 Y140.285 E31.87704
G1 X92.471 Y140.188 E31.88671
G1 X90.063 Y138.653 E32.02918
G1 X89.908 Y138.544 E32.03864
G1 X87.633 Y136.8 E32.18165
G1 X87.485 Y136.677 E32.19125
G1 X85.387 Y134.756 E32.33317
G1 X85.251 Y134.619 E32.3428
G1 X83.33 Y132.523 E32.48464
G1 X83.206 Y132.376 E32.49424
G1 X81.458 Y130.097 E32.63753
G1 X81.349 Y129.94 E32.64707
G1 X79.815 Y127.533 E32.78947
G1 X79.718 Y127.367 E32.79906
G1 X78.408 Y124.85 E32.94062
G1 X78.328 Y124.677 E32.95013
G1 X77.231 Y122.031 E33.09304
G1 X77.165 Y121.849 E33.1027
G1 X76.307 Y119.125 E33.24518
G1 X76.257 Y118.941 E33.25469
G1 X75.64 Y116.161 E33.39676
G1 X75.607 Y115.972 E33.40633
G1 X75.234 Y113.149 E33.5484
G1 X75.217 Y112.957 E33.55801
G1 X75.092 Y110.1 E33.70069
G1 X75.092 Y109.909 E33.71021
G1 X75.216 Y107.05 E33.85298
G1 X75.233 Y106.857 E33.86265
G1 X75.605 Y104.038 E34.00451
G1 X75.638 Y103.85 E34.01403
G1 X76.254 Y101.07 E34.15609
G1 X76.304 Y100.885 E34.16565
G1 X77.163 Y98.159 E34.30825
G1 X77.228 Y97.979 E34.31779
G1 X78.323 Y95.333 E34.46066
G1 X78.404 Y95.158 E34.47028
G1 X79.715 Y92.639 E34.61196
G1 X79.811 Y92.474 E34.62148
G1 X81.342 Y90.069 E34.76372
G1 X81.452 Y89.911 E34.77332
G1 X83.199 Y87.633 E34.91654
G1 X83.322 Y87.486 E34.92611
G1 X85.242 Y85.389 E35.06795
G1 X85.378 Y85.253 E35.07755
G1 X87.476 Y83.33 E35.21954
G1 X87.625 Y83.206 E35.22921
G1 X89.9 Y81.462 E35.37222
G1 X90.055 Y81.353 E35.38167
G1 X92.466 Y79.815 E35.52435
G1 X92.633 Y79.718 E35.53398
G1 X95.15 Y78.408 E35.67555
G1 X95.324 Y78.328 E35.6851
G1 X97.968 Y77.232 E35.82789
G1 X98.149 Y77.166 E35.83751
G1 X99.352 Y76.787 E35.90043
G1 X99.166 Y76.584 E35.91417
G1 X98.948 Y76.226 E35.93508
G1 X98.801 Y75.834 E35.95597
G1 X98.725 Y75.262 E35.98476
G1 X98.725 Y68.108 E36.34167
G1 X98.675 Y67.779 E36.35827
G1 X98.69 Y67.361 E36.37914
G1 X98.785 Y66.953 E36.40004
G1 X98.956 Y66.57 E36.42097
G0 F4800 X99.381 Y66.644
G1 F2400 X99.625 Y66.354 E36.43987
G1 X99.925 Y66.122 E36.45879
G1 X100.266 Y65.958 E36.47767
G1 X100.613 Y65.872 E36.49551
G1 X105.226 Y65.203 E36.72806
G1 X105.357 Y65.188 E36.73464
G1 X108.337 Y64.977 E36.88368
G1 X108.464 Y64.973 E36.89002
G1 X111.51 Y64.973 E37.04199
G1 X111.637 Y64.978 E37.04833
G1 X114.612 Y65.189 E37.19712
G1 X114.734 Y65.201 E37.20324
G1 X119.354 Y65.845 E37.43596
G1 X119.721 Y65.937 E37.45484
G1 X120.062 Y66.103 E37.47376
G1 X120.36 Y66.337 E37.49266
G1 X120.602 Y66.629 E37.51158
